X:1
T:Woody Guthrie
M:4/4
L:1/8
Q:1/4=112
K:D
A,2 D2 D2 D2 | E2 F2 A4 | A2 A2 B2 A2 | F4 D2 z2 |
A,2 D2 D2 F2 | A4 B2 A2 | F2 E2 D2 E2 | D4 z4 |
d2 d2 d2 B2 | A2 F2 D2 z2 | E2 F2 A2 A2 | B4 A2 z2 |
A,2 D2 F2 A2 | B2 A2 F2 E2 | D2 E2 F2 E2 | D6 z2 |
